assets/post/images/tree7.svg

<svg xmlns="http://www.w3.org/2000/svg" width="1681" height="736" overflow="hidden"><defs><clipPath id="a"><path d="M2152 870h1681v736H2152z"/></clipPath></defs><g clip-path="url(#a)" transform="translate(-2152 -870)"><path fill="#f0835c" fill-rule="evenodd" stroke="#000" stroke-miterlimit="8" stroke-width="9.167" d="M2406.5 954.5c0-43.63 35.37-79 79-79s79 35.37 79 79-35.37 79-79 79-79-35.369-79-79Z"/><text font-family="Courier New,Courier New_MSFontService,sans-serif" font-size="83" font-weight="700" transform="translate(2459.96 977)">G</text><path fill="#f8ccb9" fill-rule="evenodd" stroke="red" stroke-miterlimit="8" stroke-width="9.167" d="M2156.5 1204.5c0-43.63 35.15-79 78.5-79s78.5 35.37 78.5 79-35.15 79-78.5 79-78.5-35.37-78.5-79Z"/><text fill="red" font-family="Courier New,Courier New_MSFontService,sans-serif" font-size="83" font-weight="700" transform="translate(2209.91 1227)">P</text><path fill="#f8ccb9" fill-rule="evenodd" stroke="#000" stroke-miterlimit="8" stroke-width="9.167" d="M2670.5 1204.5c0-43.63 35.37-79 79-79s79 35.37 79 79-35.37 79-79 79-79-35.37-79-79Z"/><text font-family="Courier New,Courier New_MSFontService,sans-serif" font-size="83" font-weight="700" transform="translate(2724.5 1227)">U</text><path fill="#fdefe8" fill-rule="evenodd" stroke="red" stroke-miterlimit="8" stroke-width="9.167" d="M2290.5 1507.5c0-43.63 35.37-79 79-79s79 35.37 79 79-35.37 79-79 79-79-35.37-79-79Z"/><text fill="red" font-family="Courier New,Courier New_MSFontService,sans-serif" font-size="83" font-weight="700" transform="translate(2344.63 1530)">x</text><path fill="none" stroke="#000" stroke-miterlimit="8" stroke-width="9.167" d="m2290.5 1148.89 138.445-138.393m264.495 138.393L2540.5 1010.5m-171.09 418.38-78.91-168.38"/><path fill="#f0835c" fill-rule="evenodd" stroke="#000" stroke-miterlimit="8" stroke-width="9.167" d="M3406.5 953.5c0-43.63 35.37-79 79-79s79 35.37 79 79-35.37 79-79 79-79-35.369-79-79Z"/><text font-family="Courier New,Courier New_MSFontService,sans-serif" font-size="83" font-weight="700" transform="translate(3460.4 976)">G</text><path fill="#f8ccb9" fill-rule="evenodd" stroke="red" stroke-miterlimit="8" stroke-width="9.167" d="M3156.5 1203.5c0-43.63 35.37-79 79-79s79 35.37 79 79-35.37 79-79 79-79-35.37-79-79Z"/><text fill="red" font-family="Courier New,Courier New_MSFontService,sans-serif" font-size="83" font-weight="700" transform="translate(3210.35 1226)">P</text><path fill="#fdefe8" fill-rule="evenodd" stroke="red" stroke-miterlimit="8" stroke-width="9.167" d="M2998.5 1506.5c0-43.63 35.37-79 79-79s79 35.37 79 79-35.37 79-79 79-79-35.37-79-79Z"/><text fill="red" font-family="Courier New,Courier New_MSFontService,sans-serif" font-size="83" font-weight="700" transform="translate(3052.53 1529)">x</text><path fill="#f8ccb9" fill-rule="evenodd" stroke="#000" stroke-miterlimit="8" stroke-width="9.167" d="M3671.5 1203.5c0-43.63 35.15-79 78.5-79s78.5 35.37 78.5 79-35.15 79-78.5 79-78.5-35.37-78.5-79Z"/><text font-family="Courier New,Courier New_MSFontService,sans-serif" font-size="83" font-weight="700" transform="translate(3724.94 1226)">U</text><path fill="none" stroke="#000" stroke-miterlimit="8" stroke-width="9.167" d="m3291.5 1147.89 138.445-138.393m264.495 138.393L3541.5 1009.5m-464 418.38 102.026-168.381"/><path fill="#d74514" fill-rule="evenodd" d="M2910 1146.5h90V1090l90 113-90 113v-56.5h-90Z"/></g></svg>

<svg width="1681" height="736" xmlns="http://www.w3.org/2000/svg" xmlns:xlink="http://www.w3.org/1999/xlink" overflow="hidden"><defs><clipPath id="clip0"><rect x="2152" y="870" width="1681" height="736"/></clipPath></defs><g clip-path="url(#clip0)" transform="translate(-2152 -870)"><path d="M2406.5 954.5C2406.5 910.87 2441.87 875.5 2485.5 875.5 2529.13 875.5 2564.5 910.87 2564.5 954.5 2564.5 998.131 2529.13 1033.5 2485.5 1033.5 2441.87 1033.5 2406.5 998.131 2406.5 954.5Z" stroke="#000000" stroke-width="9.16667" stroke-miterlimit="8" fill="#F0835C" fill-rule="evenodd"/><text font-family="Courier New,Courier New_MSFontService,sans-serif" font-weight="700" font-size="83" transform="matrix(1 0 0 1 2459.96 977)">G</text><path d="M2156.5 1204.5C2156.5 1160.87 2191.65 1125.5 2235 1125.5 2278.35 1125.5 2313.5 1160.87 2313.5 1204.5 2313.5 1248.13 2278.35 1283.5 2235 1283.5 2191.65 1283.5 2156.5 1248.13 2156.5 1204.5Z" stroke="#FF0000" stroke-width="9.16667" stroke-miterlimit="8" fill="#F8CCB9" fill-rule="evenodd"/><text fill="#FF0000" font-family="Courier New,Courier New_MSFontService,sans-serif" font-weight="700" font-size="83" transform="matrix(1 0 0 1 2209.91 1227)">P</text><path d="M2670.5 1204.5C2670.5 1160.87 2705.87 1125.5 2749.5 1125.5 2793.13 1125.5 2828.5 1160.87 2828.5 1204.5 2828.5 1248.13 2793.13 1283.5 2749.5 1283.5 2705.87 1283.5 2670.5 1248.13 2670.5 1204.5Z" stroke="#000000" stroke-width="9.16667" stroke-miterlimit="8" fill="#F8CCB9" fill-rule="evenodd"/><text font-family="Courier New,Courier New_MSFontService,sans-serif" font-weight="700" font-size="83" transform="matrix(1 0 0 1 2724.5 1227)">U</text><path d="M2290.5 1507.5C2290.5 1463.87 2325.87 1428.5 2369.5 1428.5 2413.13 1428.5 2448.5 1463.87 2448.5 1507.5 2448.5 1551.13 2413.13 1586.5 2369.5 1586.5 2325.87 1586.5 2290.5 1551.13 2290.5 1507.5Z" stroke="#FF0000" stroke-width="9.16667" stroke-miterlimit="8" fill="#FDEFE8" fill-rule="evenodd"/><text fill="#FF0000" font-family="Courier New,Courier New_MSFontService,sans-serif" font-weight="700" font-size="83" transform="matrix(1 0 0 1 2344.63 1530)">x</text><path d="M0 0 138.445 138.393" stroke="#000000" stroke-width="9.16667" stroke-miterlimit="8" fill="none" fill-rule="evenodd" transform="matrix(1 0 0 -1 2290.5 1148.89)"/><path d="M2693.44 1148.89 2540.5 1010.5" stroke="#000000" stroke-width="9.16667" stroke-miterlimit="8" fill="none" fill-rule="evenodd"/><path d="M2369.41 1428.88 2290.5 1260.5" stroke="#000000" stroke-width="9.16667" stroke-miterlimit="8" fill="none" fill-rule="evenodd"/><path d="M3406.5 953.5C3406.5 909.87 3441.87 874.5 3485.5 874.5 3529.13 874.5 3564.5 909.87 3564.5 953.5 3564.5 997.131 3529.13 1032.5 3485.5 1032.5 3441.87 1032.5 3406.5 997.131 3406.5 953.5Z" stroke="#000000" stroke-width="9.16667" stroke-miterlimit="8" fill="#F0835C" fill-rule="evenodd"/><text font-family="Courier New,Courier New_MSFontService,sans-serif" font-weight="700" font-size="83" transform="matrix(1 0 0 1 3460.4 976)">G</text><path d="M3156.5 1203.5C3156.5 1159.87 3191.87 1124.5 3235.5 1124.5 3279.13 1124.5 3314.5 1159.87 3314.5 1203.5 3314.5 1247.13 3279.13 1282.5 3235.5 1282.5 3191.87 1282.5 3156.5 1247.13 3156.5 1203.5Z" stroke="#FF0000" stroke-width="9.16667" stroke-miterlimit="8" fill="#F8CCB9" fill-rule="evenodd"/><text fill="#FF0000" font-family="Courier New,Courier New_MSFontService,sans-serif" font-weight="700" font-size="83" transform="matrix(1 0 0 1 3210.35 1226)">P</text><path d="M2998.5 1506.5C2998.5 1462.87 3033.87 1427.5 3077.5 1427.5 3121.13 1427.5 3156.5 1462.87 3156.5 1506.5 3156.5 1550.13 3121.13 1585.5 3077.5 1585.5 3033.87 1585.5 2998.5 1550.13 2998.5 1506.5Z" stroke="#FF0000" stroke-width="9.16667" stroke-miterlimit="8" fill="#FDEFE8" fill-rule="evenodd"/><text fill="#FF0000" font-family="Courier New,Courier New_MSFontService,sans-serif" font-weight="700" font-size="83" transform="matrix(1 0 0 1 3052.53 1529)">x</text><path d="M3671.5 1203.5C3671.5 1159.87 3706.65 1124.5 3750 1124.5 3793.35 1124.5 3828.5 1159.87 3828.5 1203.5 3828.5 1247.13 3793.35 1282.5 3750 1282.5 3706.65 1282.5 3671.5 1247.13 3671.5 1203.5Z" stroke="#000000" stroke-width="9.16667" stroke-miterlimit="8" fill="#F8CCB9" fill-rule="evenodd"/><text font-family="Courier New,Courier New_MSFontService,sans-serif" font-weight="700" font-size="83" transform="matrix(1 0 0 1 3724.94 1226)">U</text><path d="M0 0 138.445 138.393" stroke="#000000" stroke-width="9.16667" stroke-miterlimit="8" fill="none" fill-rule="evenodd" transform="matrix(1 0 0 -1 3291.5 1147.89)"/><path d="M3694.44 1147.89 3541.5 1009.5" stroke="#000000" stroke-width="9.16667" stroke-miterlimit="8" fill="none" fill-rule="evenodd"/><path d="M0 0 102.026 168.381" stroke="#000000" stroke-width="9.16667" stroke-miterlimit="8" fill="none" fill-rule="evenodd" transform="matrix(1 0 0 -1 3077.5 1427.88)"/><path d="M2910 1146.5 3000 1146.5 3000 1090 3090 1203 3000 1316 3000 1259.5 2910 1259.5Z" fill="#D74514" fill-rule="evenodd"/></g></svg>
